cssgg/pin.svg

<svg
  width="24"
  height="24"
  viewBox="0 0 24 24"
  fill="none"
  xmlns="http://www.w3.org/2000/svg"
>
  <path
    fill-rule="evenodd"
    clip-rule="evenodd"
    d="M16.2721 10.2721C16.2721 12.4813 14.4813 14.2721 12.2721 14.2721C10.063 14.2721 8.27214 12.4813 8.27214 10.2721C8.27214 8.06298 10.063 6.27212 12.2721 6.27212C14.4813 6.27212 16.2721 8.06298 16.2721 10.2721ZM14.2721 10.2721C14.2721 11.3767 13.3767 12.2721 12.2721 12.2721C11.1676 12.2721 10.2721 11.3767 10.2721 10.2721C10.2721 9.16755 11.1676 8.27212 12.2721 8.27212C13.3767 8.27212 14.2721 9.16755 14.2721 10.2721Z"
    fill="currentColor"
  />
  <path
    fill-rule="evenodd"
    clip-rule="evenodd"
    d="M5.79417 16.5183C2.19424 13.0909 2.05438 7.39409 5.48178 3.79417C8.90918 0.194243 14.6059 0.054383 18.2059 3.48178C21.8058 6.90918 21.9457 12.6059 18.5183 16.2059L12.3124 22.7241L5.79417 16.5183ZM17.0698 14.8268L12.243 19.8965L7.17324 15.0698C4.3733 12.404 4.26452 7.97318 6.93028 5.17324C9.59603 2.3733 14.0268 2.26452 16.8268 4.93028C19.6267 7.59603 19.7355 12.0268 17.0698 14.8268Z"
    fill="currentColor"
  />
</svg>

<svg viewBox="0 0 24 24" xmlns="http://www.w3.org/2000/svg"><g fill-rule="evenodd"><path d="M16.27 10.27c0 2.2-1.8 4-4 4 -2.21 0-4-1.8-4-4 0-2.21 1.79-4 3.99-4s4 1.79 4 3.99Zm-2 0c0 1.1-.9 2-2 2 -1.11 0-2-.9-2-2 0-1.11.89-2 2-2 1.1 0 2 .89 2 1.99Z"/><path d="M5.79 16.51c-3.6-3.43-3.74-9.13-.32-12.73C8.89.18 14.59.04 18.19 3.46c3.59 3.42 3.73 9.12.31 12.72l-6.21 6.51 -6.52-6.21Zm11.27-1.7l-4.83 5.06 -5.07-4.83c-2.8-2.67-2.91-7.1-.25-9.9 2.66-2.8 7.09-2.91 9.89-.25 2.79 2.66 2.9 7.09.24 9.89Z"/></g></svg>
